assets/svg/page_not_found.svg

<svg width="78" height="142" viewBox="0 0 78 142" fill="none" xmlns="http://www.w3.org/2000/svg">
<g clip-path="url(#clip0_33_6377)">
<path d="M22.2121 130.823L21.3046 130.974C19.1872 131.276 17.6748 133.239 17.6748 135.352V139.881C17.6748 140.787 18.2798 141.391 19.1872 141.391H31.3125C32.2236 141.391 33.0564 140.877 33.4639 140.063L34.1897 138.615M22.2121 130.823V121.765H34.3115V138.099C34.3115 138.278 34.2698 138.455 34.1897 138.615M22.2121 130.823L31.9562 130.974C32.7007 131.048 34.1897 131.676 34.1897 133.597C34.1897 135.517 34.1897 137.742 34.1897 138.615" stroke="black" stroke-width="3" stroke-miterlimit="10" stroke-linejoin="round"/>
<path d="M52.3092 121.765H40.21V139.881C40.21 140.787 40.8151 141.391 41.7225 141.391H58.3592C59.2664 141.391 59.8715 140.787 59.8715 139.881V135.352C59.8715 133.239 58.3592 131.276 56.2415 130.974L52.3092 130.823V121.765Z" stroke="black" stroke-width="3" stroke-miterlimit="10"/>
<path d="M36.251 15.7777C36.251 16.7781 35.6496 17.4927 35.0483 17.4927C34.3468 17.4927 33.8457 16.6352 33.8457 15.7777C33.8457 14.7773 34.447 14.0627 35.0483 14.0627C35.75 14.0627 36.251 14.9202 36.251 15.7777Z" fill="black"/>
<path d="M44.1543 15.7777C44.1543 16.7781 43.553 17.4927 42.9517 17.4927C42.25 17.4927 41.749 16.6352 41.749 15.7777C41.749 14.7773 42.3503 14.0627 42.9517 14.0627C43.553 14.0627 44.1543 14.9202 44.1543 15.7777Z" fill="black"/>
<path d="M20.6998 18.8025V36.919C13.8958 60.0396 7.09195 83.2985 0.685921 106.431C0.172711 108.284 0.862077 110.361 2.63743 111.107C3.92226 111.647 5.57394 112.103 7.54163 112.103C9.28117 112.103 10.7966 111.719 12.0143 111.246C13.858 110.53 16.0094 110.593 17.8613 111.287C19.0841 111.745 20.6099 112.103 22.3634 112.103C24.1822 112.103 25.7422 111.715 26.9835 111.239C28.83 110.53 30.9824 110.593 32.8344 111.287C34.057 111.745 35.5829 112.103 37.3363 112.103C39.2516 112.171 40.8882 111.807 42.1905 111.318C44.1773 110.572 46.553 110.533 48.5439 111.269C49.8053 111.735 51.3835 112.103 53.2167 112.103C55.3488 112.103 57.1098 111.567 58.4352 110.97C60.0354 110.249 61.8541 110.204 63.4622 110.908C64.7026 111.45 66.2785 111.943 68.19 112.103C71.0255 112.352 73.4012 111.776 75.165 111.081C77.0287 110.348 77.7812 108.21 77.218 106.29C73.9881 95.2886 70.7863 84.2582 67.5849 73.2275C64.0687 61.1122 60.5522 48.9966 56.9978 36.919V18.8025C56.9978 15.6744 56.7398 12.9456 55.3832 10.3938C55.2406 10.1255 55.211 9.81074 55.3004 9.52042C56.0323 7.13784 56.5377 2.91175 55.6653 1.54319C54.7186 0.058556 50.2586 1.9928 48.0419 3.19896C45.3418 1.60347 42.1974 0.686035 38.8489 0.686035C35.9921 0.686035 33.2839 1.35379 30.8733 2.54066C28.7009 1.21674 23.0794 -0.0383528 22.1439 1.62717C21.358 3.0262 22.1546 6.9069 22.8969 9.56031C22.9714 9.82655 22.9376 10.1101 22.8076 10.3542C21.4628 12.8803 20.6998 15.7568 20.6998 18.8025Z" stroke="black" stroke-width="3" stroke-miterlimit="10"/>
</g>
<defs>
<clipPath id="clip0_33_6377">
<rect width="78" height="142" fill="white"/>
</clipPath>
</defs>
</svg>

<svg xmlns="http://www.w3.org/2000/svg" width="78" height="142" fill="none" viewBox="0 0 78 142"><g clip-path="url(#a)"><path stroke="#000" stroke-linejoin="round" stroke-miterlimit="10" stroke-width="3" d="m22.212 130.823-.907.151c-2.118.302-3.63 2.265-3.63 4.378v4.529c0 .906.605 1.51 1.512 1.51h12.125c.912 0 1.744-.514 2.152-1.328l.726-1.448m-11.978-7.792v-9.058h12.1v16.334c0 .179-.042.356-.122.516m-11.978-7.792 9.744.151c.745.074 2.234.702 2.234 2.623v5.018"/><path stroke="#000" stroke-miterlimit="10" stroke-width="3" d="M52.31 121.765h-12.1v18.116c0 .906.605 1.51 1.512 1.51H58.36c.907 0 1.512-.604 1.512-1.51v-4.529c0-2.113-1.512-4.076-3.63-4.378l-3.932-.151v-9.058Z"/><path fill="#000" d="M36.251 15.778c0 1-.601 1.715-1.203 1.715-.701 0-1.202-.858-1.202-1.715 0-1 .601-1.715 1.202-1.715.702 0 1.203.857 1.203 1.715Zm7.903 0c0 1-.601 1.715-1.202 1.715-.702 0-1.203-.858-1.203-1.715 0-1 .601-1.715 1.203-1.715.601 0 1.202.857 1.202 1.715Z"/><path stroke="#000" stroke-miterlimit="10" stroke-width="3" d="M20.7 18.802V36.92C13.896 60.039 7.092 83.299.686 106.431c-.513 1.853.176 3.93 1.951 4.676 1.285.54 2.937.996 4.905.996 1.74 0 3.255-.384 4.472-.857 1.844-.716 3.995-.653 5.847.041 1.223.458 2.749.816 4.502.816 1.82 0 3.38-.388 4.62-.864 1.847-.709 4-.646 5.851.048 1.223.458 2.749.816 4.502.816a12.49 12.49 0 0 0 4.855-.785c1.986-.746 4.362-.785 6.353-.049 1.261.466 2.84.834 4.673.834 2.132 0 3.893-.536 5.218-1.133 1.6-.721 3.42-.766 5.027-.062a14.815 14.815 0 0 0 4.728 1.195 15.267 15.267 0 0 0 6.975-1.022c1.864-.733 2.616-2.871 2.053-4.791-3.23-11.001-6.432-22.032-9.633-33.063-3.516-12.115-7.033-24.23-10.587-36.308V18.803c0-3.129-.258-5.857-1.615-8.41a1.145 1.145 0 0 1-.083-.873c.732-2.382 1.238-6.608.365-7.977-.946-1.484-5.406.45-7.623 1.656A18.021 18.021 0 0 0 38.849.686a18.01 18.01 0 0 0-7.976 1.855c-2.172-1.324-7.794-2.58-8.73-.914-.785 1.4.012 5.28.754 7.933.074.267.04.55-.09.794a17.93 17.93 0 0 0-2.107 8.448Z"/></g><defs><clipPath id="a"><path fill="#fff" d="M0 0h78v142H0z"/></clipPath></defs></svg>
